HTML/img/Component/Black Sudoku.svg

<svg xmlns="http://www.w3.org/2000/svg" xmlns:xlink="http://www.w3.org/1999/xlink" xml:space="preserve" fill="none" stroke="#000" stroke-width="2" viewBox="0 0 347 347"><defs><path id="reuse-0" d="M131.354 92.539h13.986v13.986h-13.986zM191.354 92.539h13.986v13.986h-13.986zM171.354 92.539h13.986v13.986h-13.986zM151.354 92.539h13.986v13.986h-13.986zM111.354 92.539h13.986v13.986h-13.986zM91.354 92.539h13.986v13.986H91.354zM71.354 92.539H85.34v13.986H71.354zM51.354 92.539H65.34v13.986H51.354zM31.354 92.539H45.34v13.986H31.354z" style="fill:#fff;fill-opacity:0;stroke:#000;stroke-width:1.045088;stroke-linejoin:round;stroke-dasharray:none"/></defs><path d="M5 5h337v337H5z" style="display:inline"/><circle cx="298" cy="40" r="16"/><path fill="none" d="M25.392 86.426h185.755v185.755H25.392z" style="fill:#fff;fill-opacity:0;stroke:#000;stroke-width:2.20483;stroke-linejoin:round" transform="matrix(1.15206 0 0 1.15206 .194 4.452)"/><g style="stroke-width:1.045088;stroke-dasharray:none" transform="matrix(1.15206 0 0 1.15206 .574 4.216)"><path fill="none" d="M131.354 92.539h13.986v13.986h-13.986zM191.354 92.539h13.986v13.986h-13.986zM171.354 92.539h13.986v13.986h-13.986zM151.354 92.539h13.986v13.986h-13.986zM111.354 92.539h13.986v13.986h-13.986zM91.354 92.539h13.986v13.986H91.354zM71.354 92.539H85.34v13.986H71.354zM51.354 92.539H65.34v13.986H51.354z" style="fill:#fff;fill-opacity:0;stroke:#000;stroke-width:1.045088;stroke-linejoin:round;stroke-dasharray:none"/><path fill="none" d="M31.354 92.539H45.34v13.986H31.354z" style="fill:#fff;fill-opacity:0;stroke:#000;stroke-width:1.04509;stroke-linecap:butt;stroke-linejoin:round;stroke-dasharray:none;paint-order:normal"/><path fill="none" d="M58.193 260.684h20.9l-20.62-20.621M38.561 240.2v-41.303M58.355 99.664H38.033v20.85M78.677 119.59H57.959L78.94 140.57M178.701 119.722l-20.453 20.453-19.794-19.794M138.85 160.1h-20.586l20.85-20.849M179.36 200.084h-21.244v20.586M118.132 240.332l20.52-20.52 21.047 21.048" style="fill:#000;fill-opacity:0;stroke:#000;stroke-width:1.47909464;stroke-linecap:round;stroke-linejoin:round;paint-order:normal;stroke-dasharray:none"/><circle cx="58.157" cy="99.268" r="3.563" style="fill:#000;fill-opacity:1;stroke:#000;stroke-width:1.04509;stroke-linecap:butt;stroke-linejoin:round;paint-order:normal"/><circle cx="78.694" cy="119.503" r="3.563" style="fill:#000;fill-opacity:1;stroke:#000;stroke-width:1.04509;stroke-linecap:butt;stroke-linejoin:round;stroke-dasharray:none;paint-order:normal"/><circle cx="138.733" cy="160.008" r="3.563" style="fill:#000;fill-opacity:1;stroke:#000;stroke-width:1.04509;stroke-linecap:butt;stroke-linejoin:round;stroke-dasharray:none;paint-order:normal"/><circle cx="138.56" cy="119.608" r="3.563" style="fill:#000;fill-opacity:1;stroke:#000;stroke-width:1.04509;stroke-linecap:butt;stroke-linejoin:round;stroke-dasharray:none;paint-order:normal"/><circle cx="178.662" cy="199.541" r="3.563" style="fill:#000;fill-opacity:1;stroke:#000;stroke-width:1.04509;stroke-linecap:butt;stroke-linejoin:round;stroke-dasharray:none;paint-order:normal"/><circle cx="118.54" cy="239.942" r="3.563" style="fill:#000;fill-opacity:1;stroke:#000;stroke-width:1.04509;stroke-linecap:butt;stroke-linejoin:round;stroke-dasharray:none;paint-order:normal"/><circle cx="58.591" cy="239.657" r="3.563" style="fill:#000;fill-opacity:1;stroke:#000;stroke-width:1.04509;stroke-linecap:butt;stroke-linejoin:round;stroke-dasharray:none;paint-order:normal"/><circle cx="38.439" cy="239.546" r="3.563" style="fill:#000;fill-opacity:1;stroke:#000;stroke-width:1.04509;stroke-linecap:butt;stroke-linejoin:round;stroke-dasharray:none;paint-order:normal"/></g><g fill="none" style="stroke-width:1.045088;stroke-dasharray:none"><use xlink:href="#reuse-0" style="fill:#fff;fill-opacity:0;stroke:#000;stroke-width:1.045088;stroke-linejoin:round;stroke-dasharray:none" transform="matrix(1.15206 0 0 1.15206 .574 188.545)"/></g><g fill="none" style="stroke-width:1.045088;stroke-dasharray:none"><use xlink:href="#reuse-0" style="fill:#fff;fill-opacity:0;stroke:#000;stroke-width:1.045088;stroke-linejoin:round;stroke-dasharray:none" transform="matrix(1.15206 0 0 1.15206 .574 165.504)"/></g><g fill="none" style="stroke-width:1.045088;stroke-dasharray:none"><use xlink:href="#reuse-0" style="fill:#fff;fill-opacity:0;stroke:#000;stroke-width:1.045088;stroke-linejoin:round;stroke-dasharray:none" transform="matrix(1.15206 0 0 1.15206 .574 142.463)"/></g><g fill="none" style="stroke-width:1.045088;stroke-dasharray:none" transform="matrix(1.15206 0 0 1.15206 .574 119.422)"><path d="M131.354 92.539h13.986v13.986h-13.986zM191.354 92.539h13.986v13.986h-13.986zM171.354 92.539h13.986v13.986h-13.986zM151.354 92.539h13.986v13.986h-13.986zM111.354 92.539h13.986v13.986h-13.986zM91.354 92.539h13.986v13.986H91.354z" style="fill:#fff;fill-opacity:0;stroke:#000;stroke-width:1.045088;stroke-linejoin:round;stroke-dasharray:none"/><rect width="13.986" height="13.986" x="71.354" y="92.539" ry="0" style="fill:#fff;fill-opacity:0;stroke:#000;stroke-width:1.04509;stroke-linejoin:round;stroke-dasharray:none"/><path d="M51.354 92.539H65.34v13.986H51.354zM31.354 92.539H45.34v13.986H31.354z" style="fill:#fff;fill-opacity:0;stroke:#000;stroke-width:1.045088;stroke-linejoin:round;stroke-dasharray:none"/></g><g fill="none" style="stroke-width:1.045088;stroke-dasharray:none"><use xlink:href="#reuse-0" style="fill:#fff;fill-opacity:0;stroke:#000;stroke-width:1.045088;stroke-linejoin:round;stroke-dasharray:none" transform="matrix(1.15206 0 0 1.15206 .574 96.38)"/></g><g fill="none" style="stroke-width:1.045088;stroke-dasharray:none"><use xlink:href="#reuse-0" style="fill:#fff;fill-opacity:0;stroke:#000;stroke-width:1.045088;stroke-linejoin:round;stroke-dasharray:none" transform="matrix(1.15206 0 0 1.15206 .574 73.34)"/></g><g fill="none" style="stroke-width:1.045088;stroke-dasharray:none"><use xlink:href="#reuse-0" style="fill:#fff;fill-opacity:0;stroke:#000;stroke-width:1.045088;stroke-linejoin:round;stroke-dasharray:none" transform="matrix(1.15206 0 0 1.15206 .574 50.298)"/></g><g fill="none" style="stroke-width:1.045088;stroke-dasharray:none"><use xlink:href="#reuse-0" style="fill:#fff;fill-opacity:0;stroke:#000;stroke-width:1.045088;stroke-linejoin:round;stroke-dasharray:none" transform="matrix(1.15206 0 0 1.15206 .574 27.257)"/></g><path fill="none" d="M42.569 52.029h81.268v27.949H42.569zM141.992 52.144h81.268v27.949h-81.268z" style="fill:#fff;fill-opacity:0;stroke:#000;stroke-width:2.187;stroke-linejoin:round"/><path fill="none" d="M258.612 102.693h65.798v17.159h-65.798zM258.612 278.693h65.798v17.159h-65.798zM258.607 300.771h65.798v17.159h-65.798zM258.612 256.693h65.798v17.159h-65.798zM258.612 234.693h65.798v17.159h-65.798zM258.612 212.693h65.798v17.159h-65.798zM258.612 190.693h65.798v17.159h-65.798zM258.612 168.693h65.798v17.159h-65.798zM258.612 146.693h65.798v17.159h-65.798zM258.612 124.693h65.798v17.159h-65.798z" style="font-variation-settings:normal;vector-effect:none;fill:#fff;fill-opacity:0;stroke:#000;stroke-width:1.5419;stroke-linecap:butt;stroke-linejoin:round;stroke-miterlimit:4;stroke-dasharray:none;stroke-dashoffset:0;stroke-opacity:1;-inkscape-stroke:none;stop-color:#000"/></svg>

<svg xmlns="http://www.w3.org/2000/svg" xmlns:xlink="http://www.w3.org/1999/xlink" xml:space="preserve" fill="none" stroke="#000" stroke-width="2" viewBox="0 0 347 347"><defs><path id="a" fill="#fff" fill-opacity="0" stroke="#000" stroke-dasharray="none" stroke-linejoin="round" stroke-width="1.05" d="M131.35 92.54h13.99v13.98h-13.99zm60 0h13.99v13.98h-13.99zm-20 0h13.99v13.98h-13.99zm-20 0h13.99v13.98h-13.99zm-40 0h13.99v13.98h-13.99zm-20 0h13.99v13.98H91.35zm-20 0h13.99v13.98H71.35zm-20 0h13.99v13.98H51.35zm-20 0h13.99v13.98H31.35z"/></defs><path d="M5 5h337v337H5z"/><circle cx="298" cy="40" r="16"/><path stroke-linejoin="round" stroke-width="2.53" d="M29.45 104.02h214v214h-214z"/><g stroke-linejoin="round" stroke-width="1.05" transform="matrix(1.15 0 0 1.15 .57 4.22)"><path d="M131.35 92.54h13.99v13.98h-13.99zm60 0h13.99v13.98h-13.99zm-20 0h13.99v13.98h-13.99zm-20 0h13.99v13.98h-13.99zm-40 0h13.99v13.98h-13.99zm-20 0h13.99v13.98H91.35zm-20 0h13.99v13.98H71.35zm-20 0h13.99v13.98H51.35zm-20 0h13.99v13.98H31.35z"/><path stroke-linecap="round" stroke-width="1.48" d="M58.2 260.68h20.9l-20.63-20.62m-19.9.14v-41.3m19.78-99.24H38.03v20.85m40.65-.92H57.96l20.98 20.98m99.76-20.85-20.45 20.45-19.8-19.79m.4 39.72h-20.59l20.85-20.85m40.25 60.83h-21.24v20.59m-39.99 19.66 20.52-20.52 21.05 21.05"/><circle cx="58.16" cy="99.27" r="3.56" fill="#000"/><circle cx="78.69" cy="119.5" r="3.56" fill="#000"/><circle cx="138.73" cy="160.01" r="3.56" fill="#000"/><circle cx="138.56" cy="119.61" r="3.56" fill="#000"/><circle cx="178.66" cy="199.54" r="3.56" fill="#000"/><circle cx="118.54" cy="239.94" r="3.56" fill="#000"/><circle cx="58.59" cy="239.66" r="3.56" fill="#000"/><circle cx="38.44" cy="239.55" r="3.56" fill="#000"/></g><use xlink:href="#a" fill="#fff" fill-opacity="0" stroke-linejoin="round" stroke-width="1.05" transform="matrix(1.15 0 0 1.15 .57 188.54)"/><use xlink:href="#a" fill="#fff" fill-opacity="0" stroke-linejoin="round" stroke-width="1.05" transform="matrix(1.15 0 0 1.15 .57 165.5)"/><use xlink:href="#a" fill="#fff" fill-opacity="0" stroke-linejoin="round" stroke-width="1.05" transform="matrix(1.15 0 0 1.15 .57 142.46)"/><g stroke-linejoin="round" stroke-width="1.05" transform="matrix(1.15 0 0 1.15 .57 119.42)"><path d="M131.35 92.54h13.99v13.98h-13.99zm60 0h13.99v13.98h-13.99zm-20 0h13.99v13.98h-13.99zm-20 0h13.99v13.98h-13.99zm-40 0h13.99v13.98h-13.99zm-20 0h13.99v13.98H91.35z"/><rect width="13.99" height="13.99" x="71.35" y="92.54" ry="0"/><path d="M51.35 92.54h13.99v13.98H51.35zm-20 0h13.99v13.98H31.35z"/></g><use xlink:href="#a" fill="#fff" fill-opacity="0" stroke-linejoin="round" stroke-width="1.05" transform="matrix(1.15 0 0 1.15 .57 96.38)"/><use xlink:href="#a" fill="#fff" fill-opacity="0" stroke-linejoin="round" stroke-width="1.05" transform="matrix(1.15 0 0 1.15 .57 73.34)"/><use xlink:href="#a" fill="#fff" fill-opacity="0" stroke-linejoin="round" stroke-width="1.05" transform="matrix(1.15 0 0 1.15 .57 50.3)"/><use xlink:href="#a" fill="#fff" fill-opacity="0" stroke-linejoin="round" stroke-width="1.05" transform="matrix(1.15 0 0 1.15 .57 27.26)"/><path stroke-linejoin="round" stroke-width="2.19" d="M42.57 52.03h81.27v27.95H42.57zm99.42.11h81.27V80.1h-81.27z"/><path stroke-linejoin="round" stroke-width="1.54" d="M258.61 102.7h65.8v17.15h-65.8zm0 176h65.8v17.15h-65.8zm0 22.07h65.8v17.16h-65.8zm0-44.08h65.8v17.16h-65.8zm0-22h65.8v17.16h-65.8zm0-22h65.8v17.16h-65.8zm0-22h65.8v17.16h-65.8zm0-22h65.8v17.16h-65.8zm0-22h65.8v17.16h-65.8zm0-22h65.8v17.16h-65.8z"/></svg>
